icons/football-line.svg

<svg xmlns="http://www.w3.org/2000/svg" width="24" height="24" fill="none"><g clip-path="url(#a)"><g><path fill="#121212" d="M12 2C17.523 2 22 6.477 22 12C22 17.523 17.523 22 12 22C6.477 22 2 17.523 2 12C2 6.477 6.477 2 12 2ZM13.67 16H10.33L8.95 17.897L9.504 19.603C10.3097 19.8669 11.1522 20.0009 12 20C12.871 20 13.71 19.86 14.496 19.603L15.049 17.897L13.669 16H13.67ZM5.294 10.872L4.002 11.809L4 12C4 13.73 4.549 15.331 5.482 16.64H7.392L8.715 14.82L7.687 11.65L5.294 10.872ZM18.706 10.872L16.313 11.65L15.285 14.82L16.607 16.64H18.517C19.4838 15.2862 20.0024 13.6636 20 12L19.997 11.81L18.706 10.872ZM12 9.536L9.656 11.238L10.552 14H13.447L14.343 11.238L12 9.536ZM14.291 4.333L13 5.273V7.79L15.694 9.747L17.933 9.02L18.487 7.317C17.4546 5.88787 15.9798 4.83905 14.291 4.333ZM9.708 4.333C8.01941 4.83951 6.54495 5.88868 5.513 7.318L6.067 9.02L8.306 9.747L11 7.79V5.273L9.708 4.333Z"/></g></g><defs><clipPath id="a"><rect width="24" height="24" fill="white"/></clipPath></defs></svg>

<svg width="24" height="24" fill="none" xmlns="http://www.w3.org/2000/svg"><g clip-path="url(#a)"><path d="M12 2c5.523 0 10 4.477 10 10s-4.477 10-10 10S2 17.523 2 12 6.477 2 12 2Zm1.67 14h-3.34l-1.38 1.897.554 1.706A7.991 7.991 0 0 0 12 20c.871 0 1.71-.14 2.496-.397l.553-1.706L13.669 16h.001Zm-8.376-5.128-1.292.937L4 12c0 1.73.549 3.331 1.482 4.64h1.91l1.323-1.82-1.028-3.17-2.393-.778Zm13.412 0-2.393.778-1.028 3.17 1.322 1.82h1.91A7.964 7.964 0 0 0 20 12l-.003-.19-1.291-.938ZM12 9.536l-2.344 1.702.896 2.762h2.895l.896-2.762L12 9.536Zm2.291-5.203L13 5.273V7.79l2.694 1.957 2.239-.727.554-1.703a8.014 8.014 0 0 0-4.196-2.984Zm-4.583 0a8.014 8.014 0 0 0-4.195 2.985l.554 1.702 2.239.727L11 7.79V5.273l-1.292-.94Z" /></g><defs><clipPath id="a"><path fill="#fff" d="M0 0h24v24H0z"/></clipPath></defs></svg>
